media/icon/telegram.svg

<svg width="22" height="21" viewBox="0 0 22 21" fill="none" xmlns="http://www.w3.org/2000/svg">
<path d="M22 10.5C22 13.2848 20.8411 15.9555 18.7782 17.9246C16.7153 19.8938 13.9174 21 11 21C8.08262 21 5.28473 19.8938 3.22183 17.9246C1.15893 15.9555 0 13.2848 0 10.5C0 7.71523 1.15893 5.04451 3.22183 3.07538C5.28473 1.10625 8.08262 0 11 0C13.9174 0 16.7153 1.10625 18.7782 3.07538C20.8411 5.04451 22 7.71523 22 10.5ZM11.3946 7.75163C10.324 8.17688 8.18538 9.05625 4.97888 10.3897C4.45913 10.5866 4.18642 10.78 4.16075 10.9699C4.1195 11.2888 4.53888 11.4148 5.1095 11.5868L5.35012 11.6589C5.91113 11.8335 6.66737 12.0369 7.05925 12.0448C7.41675 12.0536 7.81458 11.9136 8.25275 11.6248C11.2493 9.69456 12.7958 8.71894 12.892 8.69794C12.9608 8.68219 13.057 8.66381 13.1202 8.71894C13.1835 8.77406 13.178 8.87644 13.1711 8.904C13.1299 9.07331 11.484 10.5328 10.6329 11.2888C10.3675 11.5251 10.1791 11.6918 10.1406 11.7298C10.0559 11.8125 9.9697 11.8939 9.88212 11.9739C9.35962 12.4543 8.96912 12.8139 9.90275 13.4019C10.3524 13.6854 10.7126 13.9177 11.0715 14.1514C11.462 14.406 11.8525 14.6593 12.3585 14.9769C12.4868 15.0574 12.6106 15.1392 12.7298 15.2224C13.1849 15.5321 13.596 15.8104 14.1006 15.7657C14.3949 15.7395 14.6988 15.477 14.8527 14.6895C15.2171 12.8297 15.9335 8.80163 16.0985 7.14131C16.1089 7.0033 16.1029 6.86461 16.0806 6.72787C16.0673 6.61764 16.0114 6.51609 15.9239 6.44306C15.7986 6.36095 15.6496 6.31827 15.4976 6.321C15.0851 6.32756 14.4485 6.53888 11.3946 7.75163Z" fill="white"/>
</svg>

<svg xmlns="http://www.w3.org/2000/svg" width="22" height="21" fill="none"><path fill="#fff" d="M22 10.5c0 2.785-1.159 5.456-3.222 7.425S13.918 21 11 21s-5.715-1.106-7.778-3.075S0 13.285 0 10.5s1.159-5.455 3.222-7.425S8.082 0 11 0s5.715 1.106 7.778 3.075S22 7.715 22 10.5M11.395 7.752a543 543 0 0 0-6.416 2.638q-.78.295-.818.58c-.041.319.378.445.949.617l.24.072c.561.175 1.317.378 1.71.386q.536.013 1.193-.42 4.495-2.895 4.639-2.927c.069-.016.165-.034.228.02.064.056.058.158.051.186-.041.17-1.687 1.629-2.538 2.385-.265.236-.454.403-.492.44q-.127.126-.259.245c-.522.48-.913.84.02 1.428.45.283.81.516 1.17.75.39.254.78.507 1.287.825q.193.12.37.245c.456.31.867.588 1.372.544.294-.027.598-.289.752-1.076.364-1.86 1.08-5.888 1.246-7.549a1.8 1.8 0 0 0-.018-.413.44.44 0 0 0-.157-.285.75.75 0 0 0-.426-.122c-.413.007-1.05.218-4.103 1.43"/></svg>
